svg/pencil.svg

<svg xmlns="http://www.w3.org/2000/svg" viewBox="0 0 32 32" enable-background="new 0 0 32 32"><path d="M 24.6875 4.03125 C 23.850609 4.03125 23.039574 4.366676 22.40625 5 L 22.3125 5.09375 L 21.6875 4.5 L 21 5.1875 L 5.40625 20.78125 L 5.1875 21 L 5.125 21.3125 L 4.03125 26.8125 L 3.71875 28.28125 L 5.1875 27.96875 L 10.6875 26.875 L 11 26.8125 L 11.21875 26.59375 L 26.8125 11 L 27.5 10.3125 L 26.90625 9.71875 L 26.96875 9.65625 L 27 9.59375 C 28.266648 8.327102 28.266648 6.266648 27 5 C 26.366676 4.366676 25.524391 4.03125 24.6875 4.03125 z M 24.6875 6 C 24.999475 6 25.327074 6.139574 25.59375 6.40625 C 26.127102 6.939602 26.127102 7.654148 25.59375 8.1875 L 25.5 8.28125 L 23.71875 6.5 L 23.8125 6.40625 C 24.079176 6.139574 24.375525 6 24.6875 6 z M 21.71875 7.3125 L 24.6875 10.28125 L 23.25 11.75 L 20.25 8.75 L 21.71875 7.3125 z M 18.875 10.1875 L 21.8125 13.125 L 11.375 23.59375 L 10.96875 21.78125 L 10.84375 21.15625 L 10.21875 21.03125 L 8.40625 20.625 L 18.875 10.1875 z M 6.96875 22.34375 L 9.15625 22.84375 L 9.65625 25.03125 L 7.625 25.4375 L 6.5625 24.375 L 6.96875 22.34375 z" color="#000" overflow="visible" enable-background="accumulate"/></svg>

<svg xmlns="http://www.w3.org/2000/svg" viewBox="0 0 32 32"><path d="M24.688 4.03c-.837 0-1.648.337-2.282.97l-.093.094-.625-.594-.688.688L5.406 20.78l-.218.22-.063.313-1.094 5.5-.31 1.468 1.467-.31 5.5-1.095.313-.063.22-.218L26.81 11l.688-.688-.594-.593.063-.064.03-.062C28.267 8.327 28.267 6.267 27 5c-.633-.633-1.476-.97-2.313-.97zm0 1.97c.31 0 .64.14.906.406.533.534.533 1.248 0 1.782l-.094.093-1.78-1.78.093-.094c.266-.266.563-.406.875-.406zm-2.97 1.313l2.97 2.968-1.438 1.47-3-3 1.47-1.438zm-2.843 2.875l2.938 2.937-10.438 10.47-.406-1.814-.126-.624-.625-.125-1.814-.405 10.47-10.438zM6.97 22.343l2.186.5.5 2.187-2.03.407-1.064-1.062.407-2.03z"/></svg>
